assets/payVisa4.svg

<svg width="76" height="23" viewBox="0 0 76 23" fill="none" xmlns="http://www.w3.org/2000/svg">
<g clip-path="url(#clip0)">
<path fill-rule="evenodd" clip-rule="evenodd" d="M67.4675 0H53.043C53.8185 5.09286 58.4715 9.85714 63.5899 9.85714H75.0675C75.2226 9.36429 75.2226 8.70714 75.2226 8.21429C75.2226 3.61429 71.8103 0 67.4675 0Z" fill="url(#paint0_linear)"/>
<path fill-rule="evenodd" clip-rule="evenodd" d="M54.2852 10.6787V23.0001H61.2647V16.4287H67.4688C70.8811 16.4287 73.828 13.9644 74.7586 10.6787H54.2852Z" fill="#4DB45F"/>
<path fill-rule="evenodd" clip-rule="evenodd" d="M29.4688 0V23H35.6728C35.6728 23 37.2239 23 37.9994 21.3571C42.1871 12.4857 43.4279 9.85714 43.4279 9.85714H44.2034V23H51.183V0H44.979C44.979 0 43.4279 0.164286 42.6524 1.64286C39.0851 9.2 37.2239 13.1429 37.2239 13.1429H36.4483V0H29.4688Z" fill="#4DB45F"/>
<path fill-rule="evenodd" clip-rule="evenodd" d="M0 23V0H6.97959C6.97959 0 8.99592 0 10.0816 3.28571C12.8735 11.9929 13.1837 13.1429 13.1837 13.1429C13.1837 13.1429 13.8041 11.0071 16.2857 3.28571C17.3714 0 19.3878 0 19.3878 0H26.3673V23H19.3878V10.6786H18.6122L14.7347 23H11.6327L7.7551 10.6786H6.97959V23H0Z" fill="#4DB45F"/>
</g>
<defs>
<linearGradient id="paint0_linear" x1="53.003" y1="4.92857" x2="75.2226" y2="4.92857" gradientUnits="userSpaceOnUse">
<stop stop-color="#00B4E6"/>
<stop offset="1" stop-color="#088CCB"/>
</linearGradient>
<clipPath id="clip0">
<rect width="76" height="23" fill="white"/>
</clipPath>
</defs>
</svg>

<svg xmlns="http://www.w3.org/2000/svg" width="76" height="23" fill="none" xmlns:v="https://vecta.io/nano"><g clip-path="url(#B)" fill-rule="evenodd"><path d="M67.468 0H53.043c.776 5.093 5.43 9.857 10.547 9.857h11.478c.155-.493.155-1.15.155-1.643C75.223 3.614 71.8 0 67.468 0z" fill="url(#A)"/><g fill="#4db45f"><path d="M54.285 10.68V23h6.98v-6.57h6.204c3.412 0 6.36-2.464 7.3-5.75H54.285zM29.47 0v23h6.204s1.55 0 2.327-1.643l5.43-11.5h.776V23h6.98V0H44.98s-1.55.164-2.327 1.643l-5.428 11.5h-.776V0h-6.98zM0 23V0h6.98s2.016 0 3.102 3.286l3.102 9.857s.62-2.136 3.102-9.857C17.37 0 19.388 0 19.388 0h6.98v23h-6.98V10.68h-.776L14.735 23h-3.102L7.755 10.68H6.98V23H0z"/></g></g><defs><linearGradient id="A" x1="53.003" y1="4.929" x2="75.223" y2="4.929" gradientUnits="userSpaceOnUse"><stop stop-color="#00b4e6"/><stop offset="1" stop-color="#088ccb"/></linearGradient><clipPath id="B"><path fill="#fff" d="M0 0h76v23H0z"/></clipPath></defs></svg>
